X: 27836
T: Mother And Child, The
R: reel
M: 4/4
K: Dmajor
|:"D"A2GE FD{E}D2|"Em"EFGF EFGE|"D"A2GE FD{E}DF|1 "A"EFGE "D"~A3G:|2 "A"EFGE "D"~A3B||
|:"A"cA{B}AB cdeg|"D"fdec dcAB|"A"cA{B}AB cdeg|1 "D"fdec d2ed:|2 "D"fdec d4||

